templates/main/source/images/block-1-4.svg

<?xml version="1.0" encoding="utf-8"?>
<svg width="49px" height="49px" viewbox="0 0 49 49" version="1.1" xmlns:xlink="http://www.w3.org/1999/xlink" xmlns="http://www.w3.org/2000/svg">
  <g id="checklist" transform="translate(0.5 0.5)">
    <path d="M18 36C27.9411 36 36 27.9411 36 18C36 8.05887 27.9411 0 18 0C8.05887 0 0 8.05887 0 18C0 27.9411 8.05887 36 18 36Z" transform="translate(12 1.5)" id="Oval" fill="#8C0014" fill-opacity="0.14901961" fill-rule="evenodd" stroke="none" />
    <path d="M35.1789 3.65634L28.0184 3.65634C26.9833 2.67 25.5841 2.0625 24.0448 2.0625L23.2236 2.0625C22.5957 0.819562 21.3058 0 19.8749 0C18.444 0 17.1542 0.819562 16.5262 2.0625L15.703 2.0625C14.1637 2.0625 12.7646 2.67 11.7295 3.65634L4.57106 3.65634C2.05059 3.65634 0 5.70694 0 8.22741L0 43.429C0 45.9495 2.05059 48.0001 4.57106 48.0001L35.1788 48.0001C37.6993 48.0001 39.7499 45.9495 39.7499 43.429L39.7499 8.22741C39.75 5.70694 37.6994 3.65634 35.1789 3.65634ZM15.7031 3.9375L17.1643 3.9375C17.586 3.9375 17.9557 3.65597 18.068 3.24956C18.2916 2.44022 19.0346 1.875 19.875 1.875C20.7154 1.875 21.4584 2.44022 21.6819 3.24956C21.7942 3.65597 22.164 3.9375 22.5856 3.9375L24.0448 3.9375C26.0797 3.9375 27.7546 5.50781 27.9217 7.50009L11.8262 7.50009C11.9933 5.50781 13.6684 3.9375 15.7031 3.9375ZM20.5369 4.30603C20.3625 4.13166 20.1206 4.03134 19.8741 4.03134C19.6275 4.03134 19.3856 4.13166 19.2112 4.30603C19.0369 4.48041 18.9366 4.72228 18.9366 4.96884C18.9366 5.21541 19.0369 5.45728 19.2112 5.63166C19.3856 5.80603 19.6275 5.90634 19.8741 5.90634C20.1206 5.90634 20.3625 5.80603 20.5369 5.63166C20.7112 5.45728 20.8116 5.21541 20.8116 4.96884C20.8116 4.72228 20.7112 4.48041 20.5369 4.30603ZM37.875 43.4291C37.875 44.9157 36.6655 46.1252 35.1789 46.1252L4.57106 46.1252C3.08447 46.1252 1.875 44.9157 1.875 43.4291L1.875 8.22741C1.875 6.74081 3.08447 5.53134 4.57106 5.53134L10.4161 5.53134C10.109 6.23559 9.9375 7.01203 9.9375 7.82822L9.9375 8.43759C9.9375 8.95538 10.3572 9.37509 10.875 9.37509L28.873 9.37509C29.3908 9.37509 29.8105 8.95538 29.8105 8.43759L29.8105 7.82822C29.8105 7.01213 29.6391 6.23559 29.3319 5.53134L35.1789 5.53134C36.6655 5.53134 37.875 6.74081 37.875 8.22741L37.875 43.4291ZM12.5875 14.0245C12.9536 13.6585 13.5473 13.6585 13.9133 14.0246C14.2794 14.3908 14.2794 14.9844 13.9133 15.3505L9.2415 20.0224C9.0585 20.2055 8.8185 20.297 8.57859 20.297C8.33869 20.297 8.09878 20.2055 7.91569 20.0224L6.01772 18.1244C5.65162 17.7582 5.65162 17.1646 6.01772 16.7985C6.38391 16.4325 6.97753 16.4325 7.34363 16.7985L8.57859 18.0336L12.5875 14.0245ZM19.875 14.25L33.3752 14.25C33.893 14.25 34.3127 14.6697 34.3127 15.1875C34.3127 15.7053 33.893 16.125 33.3752 16.125L19.875 16.125C19.3572 16.125 18.9375 15.7053 18.9375 15.1875C18.9375 14.6697 19.3572 14.25 19.875 14.25ZM19.875 18.75L25.4885 18.75C26.0063 18.75 26.426 19.1697 26.426 19.6875C26.426 20.2053 26.0063 20.625 25.4885 20.625L19.875 20.625C19.3572 20.625 18.9375 20.2053 18.9375 19.6875C18.9375 19.1697 19.3572 18.75 19.875 18.75ZM29.4319 18.7501C29.6784 18.7501 29.9203 18.8504 30.0947 19.0248C30.2691 19.1992 30.3694 19.441 30.3694 19.6876C30.3694 19.9342 30.2691 20.176 30.0947 20.3504C29.9203 20.5248 29.6784 20.6251 29.4319 20.6251C29.1853 20.6251 28.9434 20.5248 28.7691 20.3504C28.5947 20.176 28.4944 19.9342 28.4944 19.6876C28.4944 19.441 28.5947 19.1992 28.7691 19.0248C28.9434 18.8504 29.1853 18.7501 29.4319 18.7501ZM7.125 24.375L11.625 24.375C12.1428 24.375 12.5625 24.7947 12.5625 25.3125L12.5625 29.8125C12.5625 30.3303 12.1428 30.75 11.625 30.75L7.125 30.75C6.60722 30.75 6.1875 30.3303 6.1875 29.8125L6.1875 25.3125C6.1875 24.7947 6.60722 24.375 7.125 24.375ZM33.3752 24.375L19.875 24.375C19.3572 24.375 18.9375 24.7947 18.9375 25.3125C18.9375 25.8303 19.3572 26.25 19.875 26.25L33.3752 26.25C33.893 26.25 34.3127 25.8303 34.3127 25.3125C34.3127 24.7947 33.893 24.375 33.3752 24.375ZM8.0625 28.875L10.6875 28.875L10.6875 26.25L8.0625 26.25L8.0625 28.875ZM25.4885 28.875L19.875 28.875C19.3572 28.875 18.9375 29.2947 18.9375 29.8125C18.9375 30.3303 19.3572 30.75 19.875 30.75L25.4885 30.75C26.0063 30.75 26.426 30.3303 26.426 29.8125C26.426 29.2947 26.0063 28.875 25.4885 28.875ZM29.4319 28.8751C29.6784 28.8751 29.9203 28.9754 30.0947 29.1498C30.2691 29.3242 30.3694 29.566 30.3694 29.8126C30.3694 30.0592 30.2691 30.301 30.0947 30.4754C29.9203 30.6498 29.6784 30.7501 29.4319 30.7501C29.1853 30.7501 28.9434 30.6498 28.7691 30.4754C28.5947 30.301 28.4944 30.0592 28.4944 29.8126C28.4944 29.566 28.5947 29.3242 28.7691 29.1498C28.9434 28.9754 29.1853 28.8751 29.4319 28.8751ZM11.625 34.5L7.125 34.5C6.60722 34.5 6.1875 34.9197 6.1875 35.4375L6.1875 39.9375C6.1875 40.4553 6.60722 40.875 7.125 40.875L11.625 40.875C12.1428 40.875 12.5625 40.4553 12.5625 39.9375L12.5625 35.4375C12.5625 34.9197 12.1428 34.5 11.625 34.5ZM19.875 34.5L33.3752 34.5C33.893 34.5 34.3127 34.9197 34.3127 35.4375C34.3127 35.9553 33.893 36.375 33.3752 36.375L19.875 36.375C19.3572 36.375 18.9375 35.9553 18.9375 35.4375C18.9375 34.9197 19.3572 34.5 19.875 34.5ZM10.6875 39L8.0625 39L8.0625 36.375L10.6875 36.375L10.6875 39ZM19.875 39L25.4885 39C26.0063 39 26.426 39.4197 26.426 39.9375C26.426 40.4553 26.0063 40.875 25.4885 40.875L19.875 40.875C19.3572 40.875 18.9375 40.4553 18.9375 39.9375C18.9375 39.4197 19.3572 39 19.875 39ZM30.0947 39.2748C29.9203 39.1004 29.6784 39.0001 29.4319 39.0001C29.1853 39.0001 28.9434 39.1004 28.7691 39.2748C28.5947 39.4492 28.4944 39.691 28.4944 39.9376C28.4944 40.1842 28.5947 40.426 28.7691 40.6004C28.9434 40.7748 29.1853 40.8751 29.4319 40.8751C29.6784 40.8751 29.9203 40.7748 30.0947 40.6004C30.2691 40.426 30.3694 40.1842 30.3694 39.9376C30.3694 39.691 30.2691 39.4492 30.0947 39.2748Z" transform="translate(9.375008E-05 -5.0093263E-13)" id="Combined-Shape" fill="#8C0014" fill-rule="evenodd" stroke="none" />
  </g>
</svg>

<svg width="49" height="49" xmlns:xlink="http://www.w3.org/1999/xlink" xmlns="http://www.w3.org/2000/svg"><g id="checklist" transform="translate(.5 .5)" fill="#8C0014" fill-rule="evenodd" stroke="none"><path d="M18 36c9.941 0 18-8.059 18-18S27.941 0 18 0 0 8.059 0 18s8.059 18 18 18z" transform="translate(12 1.5)" id="Oval" fill-opacity=".149"/><path d="M35.179 3.656h-7.16a5.744 5.744 0 00-3.974-1.594h-.821A3.762 3.762 0 0019.874 0c-1.43 0-2.72.82-3.348 2.063h-.823c-1.54 0-2.938.607-3.973 1.593H4.57A4.576 4.576 0 000 8.227V43.43C0 45.949 2.05 48 4.571 48H35.18c2.52 0 4.57-2.05 4.57-4.571V8.227a4.574 4.574 0 00-4.57-4.57zm-19.476.281h1.461a.938.938 0 00.904-.687 1.88 1.88 0 011.807-1.375c.84 0 1.583.565 1.807 1.375a.938.938 0 00.904.688h1.459c2.035 0 3.71 1.57 3.877 3.562H11.826a3.896 3.896 0 013.877-3.563zm4.834.369a.945.945 0 00-.663-.275c-.246 0-.488.1-.663.275a.945.945 0 00-.274.663c0 .246.1.488.274.663a.945.945 0 00.663.274c.247 0 .489-.1.663-.274a.945.945 0 00.275-.663c0-.247-.1-.489-.275-.663zm17.338 39.123a2.7 2.7 0 01-2.696 2.696H4.57a2.7 2.7 0 01-2.696-2.696V8.227A2.7 2.7 0 014.57 5.531h5.845a5.732 5.732 0 00-.479 2.297v.61c0 .517.42.937.938.937h17.998c.518 0 .938-.42.938-.937v-.61a5.73 5.73 0 00-.48-2.297h5.848a2.7 2.7 0 012.696 2.696V43.43zM12.587 14.024a.938.938 0 011.326 1.327l-4.671 4.671a.934.934 0 01-1.326 0l-1.898-1.898A.938.938 0 017.344 16.8l1.235 1.235 4.008-4.01zm7.288.226h13.5a.937.937 0 110 1.875h-13.5a.937.937 0 110-1.875zm0 4.5h5.613a.937.937 0 110 1.875h-5.613a.937.937 0 110-1.875zm9.557 0c.246 0 .488.1.663.275a.944.944 0 01.274.663c0 .246-.1.488-.274.662a.945.945 0 01-.663.275.944.944 0 01-.663-.275.944.944 0 01-.275-.662c0-.247.1-.489.275-.663a.944.944 0 01.663-.275zM7.125 24.375h4.5c.518 0 .938.42.938.938v4.5c0 .517-.42.937-.938.937h-4.5a.937.937 0 01-.938-.938v-4.5c0-.517.42-.937.938-.937zm26.25 0h-13.5a.937.937 0 100 1.875h13.5a.937.937 0 100-1.875zm-25.313 4.5h2.626V26.25H8.062v2.625zm17.426 0h-5.613a.937.937 0 100 1.875h5.613a.937.937 0 100-1.875zm3.944 0c.246 0 .488.1.663.275a.944.944 0 01.274.663c0 .246-.1.488-.274.662a.945.945 0 01-.663.275.944.944 0 01-.663-.275.944.944 0 01-.275-.662c0-.247.1-.489.275-.663a.944.944 0 01.663-.275zM11.625 34.5h-4.5a.937.937 0 00-.938.938v4.5c0 .517.42.937.938.937h4.5c.518 0 .938-.42.938-.938v-4.5a.937.937 0 00-.938-.937zm8.25 0h13.5a.937.937 0 110 1.875h-13.5a.937.937 0 110-1.875zM10.687 39H8.063v-2.625h2.624V39zm9.188 0h5.613a.937.937 0 110 1.875h-5.613a.937.937 0 110-1.875zm10.22.275a.945.945 0 00-.663-.275c-.247 0-.489.1-.663.275a.944.944 0 00-.275.663c0 .246.1.488.275.662a.944.944 0 00.663.275c.246 0 .488-.1.663-.275a.944.944 0 00.274-.662c0-.247-.1-.489-.274-.663z" id="Combined-Shape"/></g></svg>
